X:1
T:Factus est repente
T:Aichinger edit BMarblr
T:Communion for Pentecost
T:Factus est repente
T:Copyright © 2016 by CPDL.  This edition can be fully distributed, duplicated, performed, and recorded. 
T:Copyright © 2016 by CPDL.  This edition can be fully distributed, duplicated, performed, and recorded. 
T:Copyright © 2016 by CPDL.  This edition can be fully distributed, duplicated, performed, and recorded. 
T:Copyright © 2016 by CPDL.  This edition can be fully distributed, duplicated, performed, and recorded. 
T:Copyright © 2016 by CPDL.  This edition can be fully distributed, duplicated, performed, and recorded. 
T:Copyright © 2016 by CPDL.  This edition can be fully distributed, duplicated, performed, and recorded. 
T:Copyright © 2016 by CPDL.  This edition can be fully distributed, duplicated, performed, and recorded. 
T:Copyright © 2016 by CPDL.  This edition can be fully distributed, duplicated, performed, and recorded. 
T:Copyright © 2016 by CPDL.  This edition can be fully distributed, duplicated, performed, and recorded. 
C:Aichinger
C:edit BMarblr
Z:Communion for Pentecost
Z:Copyright © 2016 by CPDL.  This edition can be fully distributed, duplicated, performed, and recorded.
Z:
%%score [ 1 2 3 4 ]
L:1/8
Q:1/2=104
M:4/2
K:Eb
V:1 treble nm="Soprano" snm="S."
V:2 treble nm="Alto" snm="A."
V:3 treble-8 transpose=-12 nm="Tenor" snm="T."
V:4 bass nm="Baritone" snm="Bar."
V:1
 (E8 B6) B2 | B2 B2 B4 G4 B4 | e4 B4 c8 | B6 c2 d8 | e16 | z16 | z16 | z8 (E8 | B6) B2 B2 B2 B4 | %9
w: Fa- * ctus-|est- re- pen- te- de-|coe- lo- so-||nus,-|||fa-|* ctus- est- re- pen-|
 G4 B4 e4 B4 | c8 B6 AG | A4 G2 F2 G8 | z4 B4 e4 B4 | z4 B4 c4 G4 | (B6 AG F8) | G16 | z16 | z16 | %18
w: te- de- coe- lo-|so- * * *|* * * nus,-|de- coe- lo,-|de- coe- lo-|so- * * *|nus,-|||
 z8 z4 B4 | e2 e2 e2 e2 d4 B4 | c6 c2 B8 | z4 F4 B2 B2 B2 B2 | A4 F4 G6 G2 | F4 F4 z8 | %24
w: tam-|quam- ad- ve- ni- en- tis-|spi- ri- tus,-|u- bi e- rant se-|den- tes,- al- le-|lu- ia,-|
 z4 F4 c2 c2 c2 c2 | B4 G4 A6 A2 | G8 z4 B4 | e2 e2 e2 e2 d4 B2 B2 | c8 B4 B4 | B2 B2 B2 B2 A4 F4 | %30
w: et- re- ple- ti- sunt-|o- mnes- Spi- ri-|tu,- et-|re- ple- ti- sunt- Spi- ri- tu-|San- cto,- lo-|quen- tes- ma- gna- li- a-|
 G8 G4 e2 e2 | d4 c4 z4 c2 c2 | =B4 c4 z4 G2 G2 | G8 G8- | G16 || %35
w: De- i,- al- le-|lu- ia,- al- le-|lu- ia,- al- le-|lu- ia.|_|
"^Secunda Pars (Offertory)" E8 (G8 | B8) B8- | B8 B8- | B8 B8 | B16 | z8 B8 | B12 B4 | %42
w: Con- fir-|* ma|_ hoc,|_ De-|us,-|quod-|o- pe-|
 B4 G4 A4 B4 | c8 B4 e4- | (e2 dc d4) e4 B2 c2 | d2 c2 d2 e2 f4 e2 d2 | c2 B2 B8 =A4 | %47
w: ra- tus- es- in-|no- bis,- in|_ _ _ _ no- * *|||
 B4 B4 _A4 F4 | (G6 F2 E4) A4 | F8 G8 | B4 G4 c2 B2 A2 G2 | F4 G2 F2 G2 A2 B4 | c2 B2 A2 G2 F4 B4 | %53
w: bis:- a- tem- plo-|san- * * cto-|tu- o,-|quod- est- in- Je- ru- sa-|lem,- in- Je- ru- sa- lem,-|in- Je- ru- sa- lem,- a-|
 G4 G4 A4 A4 | B8 E8 | z8 z4 B4 | G4 c2 B2 A2 G2 F4 | f2 e2 d2 c2 B8 | z4 e4 c4 c4 | d4 d4 e6 d2 | %60
w: tem- plo- san- cto-|tu- o,-|ti-|bi of- * fe- * rent,-|of- * fe- * rent,-|ti- bi- of-|fe- rent- re- ges-|
 c4 c4 B8 | e4 c4 (f2 e2 d2 c2) | B4 e6 d2 c4 | B4 B4 G4 (c2 B2 | A2 G2) F4 (B6 AG | %65
w: mu- ne- ra,-|al- le- lu- * * *|ia,- al- le- lu-|ia,- al- le- lu- *|* * ia,- al- * *|
 F4) G4 F2 E2 E4- | E4 D4 E8- | E16- | E16- | E16 |] %70
w: * le- lu- * *|* * ia.|_|||
V:2
 z8 (B,8 | E6) E2 E2 E2 E4 | C4 E4 A4 F4 | (G4 F2 E2 F8) | G8 z8 | z8 z4 F4 | B4 G4 A4 G2 F2 | %7
w: Fa-|* ctus- est- re- pen-|te- de- coe- lo-|so- * * *|nus,-|de-|coe- lo- so- * *|
 G2 F2 E2 D2 C2 D2 E4- | E4 D4 E8 | z4 G4 G8 | C4 A4 G8 | (C6 D2 E8) | z4 G4 A4 G4 | %13
w: |* * nus,-|de- coe-|lo,- de- coe-|lo, _ _|de- coe- lo,-|
 z4 G4 (C2 D2 E2 F2 | G4) E8 D4 | E8 z8 | z8 z4 F4 | B2 B2 B2 B2 A4 F4 | G12 F4 | E8 z4 D4 | %20
w: de- coe- * * *|* lo- so-|nus,-|tam-|quam- ad- ve- ni- en- tis-|spi- ri-|tus,- u-|
 E2 E2 E2 E2 D4 B,4 | C6 C2 B,4 B,4 | (C4 D2) D2 E4 B,4 | z4 B,4 E2 E2 E2 E2 | D8 C4 E4 | %25
w: bi- e- rant- se- den- tes,-|al- le- lu- ia,-|al- * le- lu- ia,-|et- re- ple- ti- sunt-|o- mnes,- sunt-|
 E2 D2 E2 E2 C8 | E8 D8 | z4 C4 G2 G2 G2 G2 | E4 E4 (E4 G4 | F16) | B,4 C2 C2 =B,4 C4 | %31
w: o- mnes- Spi- ri- tu-|San- cto,-|lo- quen- tes- ma- gna-|li- a- De- *||i,- al- le- lu- ia,-|
 z4 E2 E2 D4 E4 | z4 C2 C2 (D8 | E8) D8- | D16 || z4 (E8 D2 C2 | D4) E2 F2 G2 F2 G2 A2 | %37
w: al- le- lu- ia,-|al- le- lu-|* ia.|_|Con- * *|* fir- * * * * *|
 B6 A2 G4 F2 E2 | F4 G2 F2 E2 D2 E4 | D4 B,2 C2 D2 C2 D2 E2 | F4 (G6 FE F4) | G4 E4 (D6 C2 | %42
w: ||ma- hoc, _ _ _ _ _|_ De- * * *|us,- quod- o- *|
 D4) E4 F4 D4 | E4 F4 G4 F2 E2 | F8 G8 | F8 z8 | z8 z4 F4 | D4 E4 (F2 E2 D2 C2 | B,8) C4 E4- | %49
w: * pe- ra- tus-|es- in- no- * *||bis:-|a-|tem- plo- san- * * *|* cto- tu-|
 (E2 DC D4) E8 | z4 E4 C4 F2 E2 | D2 C2 B,4 B2 A2 G2 F2 | E8 z8 | z4 E4 C4 F2 E2 | %54
w: * * * * o,-|quod- est- in- Je-|ru- sa- lem,- in- Je- ru- sa-|lem,-|quod- est- in- Je-|
 D2 C2 B,4 z4 E4 | C4 C4 D4 D4 | E8 F4 B,4 | B,4 F2 E2 D2 C2 B,4 | B4 G4 c2 B2 A2 G2 | F8 G4 E4 | %60
w: ru- sa- lem,- a-|tem- plo- san- cto-|tu- o,- ti-|bi- of- * fe- * rent,-|ti- bi- of- * fe- *|rent- re- ges-|
 E2 D2 E2 F2 G8 | z4 A4 F4 (B2 A2 | G2 F2) E4 z4 F4 | D4 (G2 F2 E2 D2) C4 | (F2 E2 D2 C2 B,6) C2 | %65
w: mu- * ne- * ra,-|al- le- lu- *|* * ia,- al-|le- lu- * * * ia,-|al- * * * * le-|
 (D4 B,4) C8 | B,6 B,2 B,4 G,4 | A,4 G,4 C8- | C8 B,8- | B,16 |] %70
w: lu- * ia,-|al- le- lu- ia,-|al- le- lu-|* ia.|_|
V:3
 z16 | z16 | z16 | (E8 B6) B2 | B2 B2 B4 G4 B4 | e4 B4 c8 | B4 e4 c6 d2 | e2 d2 c2 B2 A4 G4 | %8
w: |||Fa- * ctus-|est- re- pen- te- de-|coe- lo- so-|nus,- de- coe- *|* * * * * lo-|
 F8 G8- | G8 z4 e4- | (e2 c2 f4) d4 e4 | f8 B4 B4 | e4 B4 z4 B4 | e4 B4 (e6 dc | B16) | %15
w: so- nus,|_ de|_ _ _ coe- lo-|so- nus,- de-|coe- lo,- de-|coe- lo- so- * *||
 B4 B4 e2 e2 e2 e2 | d4 B4 c6 c2 | B8 c6 d2 | e2 d2 c2 B2 c2 B2 B4- | B4 =A4 B8 | %20
w: nus,- tam- quam- ad- ve- ni-|en- tis- spi- ri-|tus- ve- he-|men- * * * * * *|* * tis|
 z4 E4 B2 B2 B2 B2 | _A4 F4 G6 G2 | F4 F4 z4 E4 | B2 B2 B2 B2 G4 E4 | F6 G2 A4 A4 | G8 z4 F4 | %26
w: u- bi- e- rant- se-|den- tes,- al- le-|lu- ia,- et-|re- ple- ti- sunt- o- mnes-|Spi- ri- tu- San-|cto,- et-|
 c2 c2 c2 c2 B4 G4 | c6 c2 B4 G4 | A2 A2 A2 A2 (G3 F E4) | B8 (c4 d4) | e4 e2 e2 d4 c4 | %31
w: re- ple- ti- sunt- o- mnes-|Spi- ri- tu- lo-|quen- tes- ma- gna- li- * *|a De- *|i, al- le- lu- ia,-|
 z4 c2 c2 =B4 c4 | z4 e2 e2 d8- | d4 c8 =B2 =A2 | =B16 || z16 | z8 E8 | (G8 B8) | B16 | B16 | %40
w: al- le- lu- ia,-|al- le- lu-||ia.-||Con-|fir- *|ma-|hoc,-|
 B8 B8- | B8 z8 | z16 | z16 | B8 B8- | B4 B4 B4 G4 | =A4 B4 c8 | B8 z8 | z16 | z8 z4 B4 | %50
w: De- us,|_|||quod- o-|* pe- ra- tus-|es- in- no-|bis,-||a-|
 G4 G4 _A4 A4 | B8 E8 | e4 c4 f2 e2 d2 c2 | B8 c2 B2 A2 G2 | (F6 G2 A4) G4 | A8 F6 F2 | %56
w: tem- plo- san- cto-|tu- o,-|quod- est- in- Je- ru- sa-|lem,- in- Je- ru- sa-|lem, _ _ in-|Je- ru- sa-|
 E4 e4 c4 f2 e2 | d2 c2 B4 f4 d4 | g6 f2 e2 d2 c4 | z4 B8 G4 | A2 B2 c2 d2 e8- | e8 z8 | %62
w: lem,- ti- bi- of- *|fe- * rent,- ti- bi-|of- * fe- * rent-|re- ges-|mu- * ne- * ra,|_|
 B4 G4 (c2 B2 A2 G2) | F4 B4 E4 F4- | (F2 G2) A4 G4 B4 | (B8 A6 G2) | F4 F4 G3 A B4 | %67
w: al- le- lu- * * *|ia,- al- le- lu-|* * ia,- al- le-|lu- * *|ia,- al- * * *|
 c4 B4 e2 d2 c2 B2 | A12 G2 F2 | G16 |] %70
w: * le- lu- * * *||ia.-|
V:4
 z16 | z16 | z16 | z8 (B,,8 | E,6) E,2 E,2 E,2 E,4 | C,4 E,4 A,4 F,4 | (G,6 F,E, F,8) | E,8 z8 | %8
w: |||Fa-|* ctus- est- re- pen-|te- de- coe- lo-|so- * * *|nus,-|
 (B,,8 E,6) E,2 | E,2 E,2 E,4 C,4 E,4 | A,4 F,4 (G,8 | F,8) E,8 | z4 E,4 C,4 E,4 | %13
w: fa- * ctus-|est- re- pen- te- de-|coe- lo- so-|* nus,-|de- coe- lo,-|
 z4 E,4 A,,4 C,4 | (G,,6 A,,2 B,,8) | E,8 z4 E,4 | B,2 B,2 B,2 B,2 A,4 F,4 | G,6 G,2 F,8 | %18
w: de- coe- lo-|so- * *|nus,- tam-|quam- ad- ve- ni- en- tis-|spi- ri- tus,-|
 E,8 E,4 D,4 | C,8 B,,8 | A,,8 B,,8 | z16 | z4 B,,4 E,2 E,2 E,2 E,2 | D,4 B,,4 C,6 C,2 | B,,8 z8 | %25
w: spi- ri- tus-|ve- he-|men- tis,-||et- re- ple- ti- sunt-|o- mnes- Spi- ri-|tu,-|
 z4 C,4 F,2 F,2 F,2 F,2 | E,4 C,2 C,2 G,8 | C,8 z8 | z4 A,,4 E,2 E,2 E,2 E,2 | D,4 B,,4 F,8 | %30
w: et- re- ple- ti- sunt-|Spi- ri- tu- San-|cto,-|lo- quen- tes- ma- gna-|li- a- De-|
 E,4 C,2 C,2 G,4 C,4 | z4 C,2 C,2 G,4 C,4 | z4 C,2 C,2 (=B,,8 | C,8) G,,8- | G,,16 || z16 | z16 | %37
w: i,- al- le- lu- ia,-|al- le- lu- ia,-|al- le- lu-|* ia.|_|||
 z4 (E,8 D,2 C,2 | D,4) E,2 F,2 G,2 F,2 G,2 A,2 | B,6 A,2 G,4 F,2 E,2 | D,4 E,8 D,4 | E,8 B,,8 | %42
w: Con- * *|* fir- * * * * *||* ma- hoc,-|De- us,-|
 z16 | z16 | z8 E,8 | (B,,6 C,2 D,4) E,4 | F,4 D,4 E,4 F,4 | G,8 F,4 B,4 | G,4 G,4 A,4 A,4 | %49
w: ||quod-|o- * * pe-|ra- tus- es- in-|no- bis:- a-|tem- plo- san- cto-|
 B,8 E,8 | z16 | z8 z4 E,4 | C,4 C,4 D,4 D,4 | E,8 A,,4 F,,4 | B,,8 C,4 E,4 | A,,6 A,,2 B,,8 | %56
w: tu- o,-||a-|tem- plo- san- cto-|tu- o,- quod-|est- in- Je-|ru- sa- lem,-|
 E,4 C,4 F,2 E,2 D,2 C,2 | B,,8 z4 B,4 | G,4 G,4 A,4 A,4 | B,8 E,8 | z8 z4 E,4 | C,4 C,4 D,4 D,4 | %62
w: ti- bi- of- * fe- *|rent,- ti-|bi- of- fe- rent-|re- ges-|ti-|bi of- fe- rent-|
 E,6 E,2 A,,8 | B,,4 G,,4 C,2 B,,2 A,,2 G,,2 | F,,8 (G,,6 A,,2 | B,,4) G,,4 (A,,8 | B,,8) E,4 E,4 | %67
w: mu- ne- ra,-|al- le- lu- * * *|ia,- al- *|* le- lu-|* ia,- al-|
 C,4 E,2 D,2 C,2 B,,2 A,,4- | A,,2 B,,2 C,2 D,2 E,8- | E,16 |] %70
w: le- lu- * * * *|* * * * ia.|_|

